X:13
T:Kilfenora
Z: id:dc-slide-14
M:6/8
L:1/8
K:G Major
BA|B2B BAB|dBA G2B|ded d2B|ded d2c|!
B2B BAB|dBA G2B|ded cBA|G3 G:|!
Bd|g3 f3|ege dBA|ded d2B|ded dBd|!
g3 f3|ege dBA|[1 ded cBA|G3 G:|[2 dge dge|dge d|]!

